X:41
T:Jessie MacKenzie's
R:strathspey
C:Brenda Stubbert
O:Cape Breton Island
S:http://www.cranfordpub.com
D:Music All Around, 2003
Z:psc, (re-formatted,updated 9/19/04)
N:http://www.cranfordpub.com/stubbert
H:                                                        copyrights Stubbert Music, SOCAN
L:1/8
Q:244
M:C
K:Amix
F|E>AF<A E<Ac<e|d>Bc>A B>AF<A|E>AF<A E<Ad<f|e>cd<B A2 A:|
g|f>d d/d/d/d/ e>dc>A|dA B>AF>g|f>d d/d/d/d/ e>dc>A|B<Gg>B A/A/A A>g|
f>d d/d/d/d/ e>dc>A|dA B>AF<A|E>AF<A E<Ad<f|e>cd<B A2 A|]
